assets/arrow-right-fill.svg

<svg xmlns="http://www.w3.org/2000/svg" fill="none" viewBox="0 0 28 28">
  <mask id="a" fill="#fff">
    <path fill-rule="evenodd" d="M14 28c7.732 0 14-6.268 14-14 0-7.73199-6.268-14-14-14C6.26801 0 0 6.26801 0 14c0 7.732 6.26801 14 14 14Zm10.5303-14.5303-4.7729-4.773c-.2929-.29289-.7678-.29289-1.0607 0-.2929.29289-.2929.76777 0 1.06066L22.1893 13.25H4c-.41421 0-.75.3358-.75.75s.33579.75.75.75h18.1893l-3.4926 3.4926c-.2929.2929-.2929.7678 0 1.0607.2929.2929.7678.2929 1.0607 0l4.7729-4.773c.2929-.2929.2929-.7677 0-1.0606Z" clip-rule="evenodd"/>
  </mask>
  <path fill="#2A2238" fill-rule="evenodd" d="M14 28c7.732 0 14-6.268 14-14 0-7.73199-6.268-14-14-14C6.26801 0 0 6.26801 0 14c0 7.732 6.26801 14 14 14Zm10.5303-14.5303-4.7729-4.773c-.2929-.29289-.7678-.29289-1.0607 0-.2929.29289-.2929.76777 0 1.06066L22.1893 13.25H4c-.41421 0-.75.3358-.75.75s.33579.75.75.75h18.1893l-3.4926 3.4926c-.2929.2929-.2929.7678 0 1.0607.2929.2929.7678.2929 1.0607 0l4.7729-4.773c.2929-.2929.2929-.7677 0-1.0606Z" clip-rule="evenodd"/>
  <path fill="#2A2238" d="m19.7574 8.6967-1.0607 1.06066 1.0607-1.06066Zm4.7729 4.773 1.0607-1.0607-1.0607 1.0607Zm-5.8336-3.71234 1.0607-1.06066-1.0607 1.06066ZM22.1893 13.25v1.5h3.6214L23.25 12.1893 22.1893 13.25Zm0 1.5 1.0607 1.0607 2.5607-2.5607h-3.6214v1.5Zm-3.4926 3.4926 1.0607 1.0607-1.0607-1.0607Zm1.0607 1.0607-1.0607-1.0607 1.0607 1.0607Zm4.7729-4.773 1.0607 1.0607-1.0607-1.0607ZM26.5 14c0 6.9036-5.5964 12.5-12.5 12.5v3c8.5604 0 15.5-6.9396 15.5-15.5h-3ZM14 1.5c6.9036 0 12.5 5.59644 12.5 12.5h3c0-8.56041-6.9396-15.5-15.5-15.5v3ZM1.5 14C1.5 7.09644 7.09644 1.5 14 1.5v-3C5.43959-1.5-1.5 5.43959-1.5 14h3ZM14 26.5C7.09644 26.5 1.5 20.9036 1.5 14h-3c0 8.5604 6.93959 15.5 15.5 15.5v-3Zm4.6967-16.74264 4.773 4.77294 2.1213-2.1213-4.773-4.77296-2.1213 2.12132Zm1.0607 0c-.2929.29284-.7678.29294-1.0607 0l2.1213-2.12132c-.8787-.87868-2.3033-.87868-3.182 0l2.1214 2.12132Zm0-1.06066c.2929.29289.2929.76777 0 1.06066L17.636 7.63604c-.8786.87868-.8786 2.3033 0 3.18196l2.1214-2.1213Zm3.4926 3.4926-3.4926-3.4926-2.1214 2.1213 3.4927 3.4927 2.1213-2.1214ZM4 14.75h18.1893v-3H4v3Zm.75-.75c0 .4142-.33579.75-.75.75v-3c-1.24264 0-2.25 1.0074-2.25 2.25h3ZM4 13.25c.41421 0 .75.3358.75.75h-3c0 1.2426 1.00736 2.25 2.25 2.25v-3Zm18.1893 0H4v3h18.1893v-3Zm-2.4319 6.0533 3.4926-3.4926-2.1213-2.1214-3.4927 3.4927 2.1214 2.1213Zm0-1.0607c.2928.2929.2929.7678 0 1.0607L17.636 17.182c-.8786.8787-.8786 2.3033 0 3.182l2.1214-2.1214Zm-1.0607 0c.2929-.2929.7678-.2928 1.0607 0L17.636 20.364c.8787.8786 2.3033.8786 3.182 0l-2.1213-2.1214Zm4.773-4.7729-4.773 4.7729 2.1213 2.1214 4.773-4.773-2.1213-2.1213Zm0 1.0606c-.2929-.2929-.2929-.7677 0-1.0606l2.1213 2.1213c.8787-.8787.8787-2.3033 0-3.182l-2.1213 2.1213Z" mask="url(#a)"/>
</svg>

<svg width="28" height="28" viewBox="0 0 28 28" fill="none" xmlns="http://www.w3.org/2000/svg">
<mask id="path-1-inside-1_11_273" fill="white">
<path fill-rule="evenodd" clip-rule="evenodd" d="M14 28C21.732 28 28 21.732 28 14C28 6.26801 21.732 0 14 0C6.26801 0 0 6.26801 0 14C0 21.732 6.26801 28 14 28ZM24.5303 13.4697L19.7574 8.6967C19.4645 8.40381 18.9896 8.40381 18.6967 8.6967C18.4038 8.98959 18.4038 9.46447 18.6967 9.75736L22.1893 13.25H4C3.58579 13.25 3.25 13.5858 3.25 14C3.25 14.4142 3.58579 14.75 4 14.75H22.1893L18.6967 18.2426C18.4038 18.5355 18.4038 19.0104 18.6967 19.3033C18.9896 19.5962 19.4645 19.5962 19.7574 19.3033L24.5303 14.5303C24.8232 14.2374 24.8232 13.7626 24.5303 13.4697Z"/>
</mask>
<path fill-rule="evenodd" clip-rule="evenodd" d="M14 28C21.732 28 28 21.732 28 14C28 6.26801 21.732 0 14 0C6.26801 0 0 6.26801 0 14C0 21.732 6.26801 28 14 28ZM24.5303 13.4697L19.7574 8.6967C19.4645 8.40381 18.9896 8.40381 18.6967 8.6967C18.4038 8.98959 18.4038 9.46447 18.6967 9.75736L22.1893 13.25H4C3.58579 13.25 3.25 13.5858 3.25 14C3.25 14.4142 3.58579 14.75 4 14.75H22.1893L18.6967 18.2426C18.4038 18.5355 18.4038 19.0104 18.6967 19.3033C18.9896 19.5962 19.4645 19.5962 19.7574 19.3033L24.5303 14.5303C24.8232 14.2374 24.8232 13.7626 24.5303 13.4697Z" fill="#2A2238"/>
<path d="M19.7574 8.6967L18.6967 9.75736L18.6967 9.75736L19.7574 8.6967ZM24.5303 13.4697L25.591 12.409L25.591 12.409L24.5303 13.4697ZM18.6967 9.75736L19.7574 8.6967L19.7574 8.6967L18.6967 9.75736ZM22.1893 13.25V14.75H25.8107L23.25 12.1893L22.1893 13.25ZM22.1893 14.75L23.25 15.8107L25.8107 13.25H22.1893V14.75ZM18.6967 18.2426L19.7574 19.3033L19.7574 19.3033L18.6967 18.2426ZM19.7574 19.3033L18.6967 18.2426L18.6967 18.2426L19.7574 19.3033ZM24.5303 14.5303L25.591 15.591L25.591 15.591L24.5303 14.5303ZM26.5 14C26.5 20.9036 20.9036 26.5 14 26.5V29.5C22.5604 29.5 29.5 22.5604 29.5 14H26.5ZM14 1.5C20.9036 1.5 26.5 7.09644 26.5 14H29.5C29.5 5.43959 22.5604 -1.5 14 -1.5V1.5ZM1.5 14C1.5 7.09644 7.09644 1.5 14 1.5V-1.5C5.43959 -1.5 -1.5 5.43959 -1.5 14H1.5ZM14 26.5C7.09644 26.5 1.5 20.9036 1.5 14H-1.5C-1.5 22.5604 5.43959 29.5 14 29.5V26.5ZM18.6967 9.75736L23.4697 14.5303L25.591 12.409L20.818 7.63604L18.6967 9.75736ZM19.7574 9.75736C19.4645 10.0502 18.9896 10.0503 18.6967 9.75736L20.818 7.63604C19.9393 6.75736 18.5147 6.75736 17.636 7.63604L19.7574 9.75736ZM19.7574 8.6967C20.0503 8.98959 20.0503 9.46447 19.7574 9.75736L17.636 7.63604C16.7574 8.51472 16.7574 9.93934 17.636 10.818L19.7574 8.6967ZM23.25 12.1893L19.7574 8.6967L17.636 10.818L21.1287 14.3107L23.25 12.1893ZM4 14.75H22.1893V11.75H4V14.75ZM4.75 14C4.75 14.4142 4.41421 14.75 4 14.75V11.75C2.75736 11.75 1.75 12.7574 1.75 14H4.75ZM4 13.25C4.41421 13.25 4.75 13.5858 4.75 14H1.75C1.75 15.2426 2.75736 16.25 4 16.25V13.25ZM22.1893 13.25H4V16.25H22.1893V13.25ZM19.7574 19.3033L23.25 15.8107L21.1287 13.6893L17.636 17.182L19.7574 19.3033ZM19.7574 18.2426C20.0502 18.5355 20.0503 19.0104 19.7574 19.3033L17.636 17.182C16.7574 18.0607 16.7574 19.4853 17.636 20.364L19.7574 18.2426ZM18.6967 18.2426C18.9896 17.9497 19.4645 17.9498 19.7574 18.2426L17.636 20.364C18.5147 21.2426 19.9393 21.2426 20.818 20.364L18.6967 18.2426ZM23.4697 13.4697L18.6967 18.2426L20.818 20.364L25.591 15.591L23.4697 13.4697ZM23.4697 14.5303C23.1768 14.2374 23.1768 13.7626 23.4697 13.4697L25.591 15.591C26.4697 14.7123 26.4697 13.2877 25.591 12.409L23.4697 14.5303Z" fill="#2A2238" mask="url(#path-1-inside-1_11_273)"/>
</svg>
